X:173
T:Hornsby’s march. JGi.173
M:C
L:1/8
Q:1/4=135
S:Joshua Gibbons MS,1823,Tealby,Lincs.
R:march
O:Tealby,Lincolnshire
Z:VMP/R.Greig, 2009
K:C
G|c4B>cd>B|c2c>cc2d2|e4d>ef>d|e2e>ee2d2|
c>Bc>de2d>c|B>GB>dg3d|e>ge>cB2A2|G2G>GG2:|
|:e2g4e>c e>g|f>ga>fd3e|f4d>Bd>f|e>fg>ec3G|
c>ed>fe3d|e>gf>ag3f|(3efg (3agfe2d2|c2c>cc2:|

